X: 1
T: Meenotogues Lad, The
M: 12/8
L: 1/8
R: slide
K: Gmaj
|: DD/E/F | G2 B d2 G c2 e g2 e | dB/c/d GAB A2 B cBA |
G2 B dBG cBc gfe | d>ed cBA G3 :|
|: def | g3 g2 e f3 f2 d | ece g2 e d3 d2 B |
[1 c2 B c2 A B2 ^A B2 G | A2 d ^cde d3 :|
[2 G3 d2 B c3 g2 e | d>ed cc/B/A G3 |]
